dist/images/calendar_icon_dark.svg

<?xml version="1.0" encoding="UTF-8"?>
<svg width="16px" height="18px" viewBox="0 0 16 18" version="1.1" xmlns="http://www.w3.org/2000/svg" xmlns:xlink="http://www.w3.org/1999/xlink">
    <!-- Generator: Sketch 44.1 (41455) - http://www.bohemiancoding.com/sketch -->
    <title>calendar_icon</title>
    <desc>Created with Sketch.</desc>
    <defs></defs>
    <g id="Home-page" stroke="none" stroke-width="1" fill="none" fill-rule="evenodd">
        <g id="Desktop-HD-Alt" transform="translate(-994.000000, -846.000000)" fill="#262626">
            <g id="sidebar" transform="translate(940.000000, 650.000000)">
                <g id="calendar_icon" transform="translate(54.000000, 196.000000)">
                    <g id="Layer_1">
                        <g id="Group">
                            <rect id="Rectangle-path" x="6.78299776" y="8.59921875" width="2.32662192" height="2.28515625"></rect>
                            <rect id="Rectangle-path" x="10.4304251" y="8.59921875" width="2.32662192" height="2.28515625"></rect>
                            <rect id="Rectangle-path" x="3.13914989" y="12.0726563" width="2.32662192" height="2.28515625"></rect>
                            <rect id="Rectangle-path" x="6.78299776" y="12.0726563" width="2.32662192" height="2.28515625"></rect>
                            <rect id="Rectangle-path" x="10.4304251" y="12.0726563" width="2.32662192" height="2.28515625"></rect>
                            <path d="M4.35973154,4.35234375 L4.35973154,4.35234375 C3.78702461,4.35234375 3.31812081,3.89179687 3.31812081,3.32929687 L3.31812081,1.0265625 C3.31812081,0.4640625 3.78702461,0.003515625 4.35973154,0.003515625 L4.35973154,0.003515625 C4.93243848,0.003515625 5.40134228,0.4640625 5.40134228,1.0265625 L5.40134228,3.3328125 C5.40134228,3.89179687 4.93243848,4.35234375 4.35973154,4.35234375 L4.35973154,4.35234375 Z" id="Shape"></path>
                            <path d="M14.1995526,2.17617188 L13.0183445,2.17617188 L13.0183445,3.571875 C13.0183445,4.43320313 12.3131991,5.13632813 11.4505593,5.13632813 L11.0353468,5.13632813 C10.1727069,5.13632813 9.46756152,4.43320313 9.46756152,3.571875 L9.46756152,2.17617188 L6.23176734,2.17617188 L6.23176734,3.571875 C6.23176734,4.43320313 5.52662192,5.13632813 4.6639821,5.13632813 L4.24876957,5.13632813 C3.38612975,5.13632813 2.68098434,4.43320313 2.68098434,3.571875 L2.68098434,2.17617188 L1.7753915,2.17617188 C0.805369128,2.17617188 0.010738255,2.9671875 0.010738255,3.93398438 L0.010738255,16.2386719 C0.010738255,17.2054688 0.805369128,17.9964844 1.7753915,17.9964844 L14.203132,17.9964844 C15.1731544,17.9964844 15.9677852,17.2054688 15.9677852,16.2386719 L15.9677852,3.93398438 C15.9642058,2.9671875 15.1695749,2.17617188 14.1995526,2.17617188 L14.1995526,2.17617188 Z M13.8988814,14.5792969 C13.8988814,15.1804688 13.4049217,15.6726563 12.8035794,15.6726563 L3.17494407,15.6726563 C2.57360179,15.6726563 2.07964206,15.1804688 2.07964206,14.5792969 L2.07964206,8.37773438 C2.07964206,7.7765625 2.57360179,7.2421875 3.17494407,7.2421875 L12.8035794,7.2421875 C13.4049217,7.2421875 13.8988814,7.7765625 13.8988814,8.37773438 L13.8988814,14.5792969 L13.8988814,14.5792969 Z" id="Shape"></path>
                            <path d="M11.2501119,4.35234375 L11.2501119,4.35234375 C10.6774049,4.35234375 10.2085011,3.89179687 10.2085011,3.32929687 L10.2085011,1.0265625 C10.2085011,0.4640625 10.6774049,0.003515625 11.2501119,0.003515625 L11.2501119,0.003515625 C11.8228188,0.003515625 12.2917226,0.4640625 12.2917226,1.0265625 L12.2917226,3.3328125 C12.2917226,3.89179687 11.8228188,4.35234375 11.2501119,4.35234375 L11.2501119,4.35234375 Z" id="Shape"></path>
                        </g>
                    </g>
                </g>
            </g>
        </g>
    </g>
</svg>

<svg width="16" height="18" viewBox="0 0 16 18" xmlns="http://www.w3.org/2000/svg"><title>calendar_icon</title><g fill="#262626" fill-rule="evenodd"><path d="M6.783 8.599H9.11v2.285H6.783zM10.43 8.599h2.327v2.285H10.43zM3.139 12.073h2.327v2.285H3.139zM6.783 12.073H9.11v2.285H6.783zM10.43 12.073h2.327v2.285H10.43zM4.36 4.352c-.573 0-1.042-.46-1.042-1.023V1.027c0-.563.469-1.023 1.042-1.023.572 0 1.041.46 1.041 1.023v2.306c0 .559-.469 1.02-1.041 1.02z"/><path d="M14.2 2.176h-1.182v1.396a1.57 1.57 0 0 1-1.567 1.564h-.416a1.57 1.57 0 0 1-1.567-1.564V2.176H6.232v1.396a1.57 1.57 0 0 1-1.568 1.564h-.415A1.57 1.57 0 0 1 2.68 3.572V2.176h-.906c-.97 0-1.764.791-1.764 1.758v12.305c0 .966.794 1.757 1.764 1.757h12.428c.97 0 1.765-.79 1.765-1.757V3.934A1.772 1.772 0 0 0 14.2 2.176zm-.301 12.403c0 .601-.494 1.094-1.095 1.094h-9.63a1.098 1.098 0 0 1-1.094-1.094V8.378c0-.601.494-1.136 1.095-1.136h9.629c.6 0 1.095.535 1.095 1.136v6.201z"/><path d="M11.25 4.352c-.573 0-1.041-.46-1.041-1.023V1.027c0-.563.468-1.023 1.041-1.023s1.042.46 1.042 1.023v2.306c0 .559-.47 1.02-1.042 1.02z"/></g></svg>
